X: 163
T: Slaughter House
M:6/8
L:1/8
Q:160
S:Playford
O:Manuscript
A:English
K:Dm
g|^f2 d d=ef|g3 b3|f d2 c2 B|G3 G3|^f2 d d=ef|g3 b3|f d2 c2 B|d3 d3:|
|: F|BAB cBc|d f2 f2 F| BAB cde|d3 d2 F|B>cd e f2|f3 g3|f d2 c2 B|G3 G3:|
|: A|B3 A2G|^F D2 D2 D|BAB cBc|d3 e2 A| B>cd e c2| f3 g3|f d2 c2 B|G3 G3:|

